src/assets/icons/instagram.svg

<?xml version="1.0" encoding="UTF-8"?>
<svg width="36px" height="36px" viewBox="0 0 36 36" version="1.1" xmlns="http://www.w3.org/2000/svg" xmlns:xlink="http://www.w3.org/1999/xlink">
    <!-- Generator: Sketch 53.2 (72643) - https://sketchapp.com -->
    <title>instagram outlined</title>
    <desc>Created with Sketch.</desc>
    <g id="instagram-outlined" stroke="none" stroke-width="1" fill="none" fill-rule="evenodd">
        <circle id="Oval" stroke="#FFFFFF" cx="18" cy="18" r="17.5"></circle>
        <path d="M18.0022309,12.8722526 C15.1645287,12.8722526 12.8756274,15.1616646 12.8756274,18 C12.8756274,20.8383354 15.1645287,23.1277474 18.0022309,23.1277474 C20.8399331,23.1277474 23.1288344,20.8383354 23.1288344,18 C23.1288344,15.1616646 20.8399331,12.8722526 18.0022309,12.8722526 Z M18.0022309,21.3337052 C16.1684328,21.3337052 14.6692694,19.8386701 14.6692694,18 C14.6692694,16.1613299 16.163971,14.6662948 18.0022309,14.6662948 C19.8404908,14.6662948 21.3351924,16.1613299 21.3351924,18 C21.3351924,19.8386701 19.836029,21.3337052 18.0022309,21.3337052 L18.0022309,21.3337052 Z M24.5343001,12.6625014 C24.5343001,13.3274573 23.9988846,13.8585295 23.3385388,13.8585295 C22.6737312,13.8585295 22.1427775,13.3229945 22.1427775,12.6625014 C22.1427775,12.0020083 22.678193,11.4664733 23.3385388,11.4664733 C23.9988846,11.4664733 24.5343001,12.0020083 24.5343001,12.6625014 Z M27.9297267,13.8763807 C27.8538762,12.2742385 27.4880089,10.8550708 26.3145566,9.68581948 C25.1455661,8.51656811 23.726715,8.15061921 22.1249303,8.07028897 C20.4740658,7.97657034 15.5259342,7.97657034 13.8750697,8.07028897 C12.2777468,8.14615642 10.8588957,8.51210532 9.68544339,9.68135669 C8.51199108,10.8506081 8.15058561,12.2697757 8.07027328,13.8719179 C7.97657557,15.5231507 7.97657557,20.4723865 8.07027328,22.1236193 C8.14612381,23.7257615 8.51199108,25.1449292 9.68544339,26.3141805 C10.8588957,27.4834319 12.273285,27.8493808 13.8750697,27.929711 C15.5259342,28.0234297 20.4740658,28.0234297 22.1249303,27.929711 C23.726715,27.8538436 25.1455661,27.4878947 26.3145566,26.3141805 C27.4835471,25.1449292 27.8494144,23.7257615 27.9297267,22.1236193 C28.0234244,20.4723865 28.0234244,15.5276135 27.9297267,13.8763807 Z M25.7969883,23.8953475 C25.4489682,24.7700547 24.775237,25.4439362 23.8962632,25.7964967 C22.5800335,26.3186433 19.4567764,26.1981479 18.0022309,26.1981479 C16.5476854,26.1981479 13.4199665,26.3141805 12.1081985,25.7964967 C11.2336866,25.448399 10.5599554,24.7745175 10.2074735,23.8953475 C9.68544339,22.5788241 9.80591188,19.45487 9.80591188,18 C9.80591188,16.54513 9.68990519,13.4167132 10.2074735,12.1046525 C10.5554936,11.2299453 11.2292248,10.5560638 12.1081985,10.2035033 C13.4244283,9.68135669 16.5476854,9.80185206 18.0022309,9.80185206 C19.4567764,9.80185206 22.5844953,9.68581948 23.8962632,10.2035033 C24.7707752,10.551601 25.4445064,11.2254825 25.7969883,12.1046525 C26.3190184,13.4211759 26.1985499,16.54513 26.1985499,18 C26.1985499,19.45487 26.3190184,22.5832868 25.7969883,23.8953475 Z" id="Shape" fill="#FFFFFF" fill-rule="nonzero"></path>
    </g>
</svg>

<svg width="36" height="36" xmlns="http://www.w3.org/2000/svg"><g fill="none" fill-rule="evenodd"><circle stroke="#FFF" cx="18" cy="18" r="17.5"/><path d="M18.002 12.872A5.12 5.12 0 0 0 12.876 18a5.12 5.12 0 0 0 5.126 5.128A5.12 5.12 0 0 0 23.13 18a5.12 5.12 0 0 0-5.127-5.128zm0 8.462A3.34 3.34 0 0 1 14.67 18a3.337 3.337 0 0 1 3.333-3.334A3.337 3.337 0 0 1 21.335 18a3.34 3.34 0 0 1-3.333 3.334zm6.532-8.671c0 .664-.535 1.196-1.195 1.196a1.196 1.196 0 1 1 1.196-1.196zm3.396 1.213c-.076-1.602-.442-3.02-1.615-4.19-1.17-1.17-2.588-1.535-4.19-1.616-1.65-.093-6.6-.093-8.25 0-1.597.076-3.016.442-4.19 1.611-1.173 1.17-1.534 2.589-1.615 4.19-.093 1.652-.093 6.601 0 8.253.076 1.602.442 3.02 1.615 4.19 1.174 1.17 2.588 1.535 4.19 1.616 1.65.093 6.6.093 8.25 0 1.602-.076 3.02-.442 4.19-1.616 1.169-1.17 1.534-2.588 1.615-4.19.093-1.652.093-6.596 0-8.248zm-2.133 10.02a3.375 3.375 0 0 1-1.9 1.9c-1.317.523-4.44.402-5.895.402-1.454 0-4.582.116-5.894-.402a3.375 3.375 0 0 1-1.9-1.9c-.523-1.317-.402-4.441-.402-5.896s-.116-4.583.401-5.895a3.375 3.375 0 0 1 1.901-1.901c1.316-.523 4.44-.402 5.894-.402 1.455 0 4.582-.116 5.894.402a3.375 3.375 0 0 1 1.901 1.9c.522 1.317.402 4.441.402 5.896s.12 4.583-.402 5.895z" fill="#FFF" fill-rule="nonzero"/></g></svg>
